X: 17688
T: Hollyford, The
R: jig
M: 6/8
K: Dmixolydian
~F3 AGG|AFD GED|~D3 ~c2A|ded cAG|
~F3 AGG|AFD GEA|~D3 GEA|1 ~D3 DAG:|2 ~D3 DdB||
|:~c3 cAd|d^cA GED|~D3 ~c2A|ded cAB|
~c3 edd|ecA GEA|~D3 GEA|1 ~D3 DdB:|2 ~D3 DAG||

